packages/foundations/assets/icons/functional/images/notification/check_circle.svg

<svg xmlns="http://www.w3.org/2000/svg" width="32" height="32" fill="none"><path fill="#1A1C1F" fill-rule="evenodd" d="M14.72 2.06c-1.337.16-2.192.345-3.214.694a14 14 0 0 0-9.108 9.958 13.97 13.97 0 0 0 2.111 11.263c1.513 2.162 3.665 3.918 6.004 4.898 1.813.759 3.549 1.111 5.487 1.111 2.014 0 3.907-.403 5.746-1.224 3.133-1.398 5.81-4.13 7.127-7.273.76-1.814 1.111-3.55 1.11-5.487-.001-2.779-.782-5.401-2.282-7.665a14.06 14.06 0 0 0-9.621-6.178c-.537-.084-2.898-.153-3.36-.097m3.04 2.074c3.883.583 7.274 3.057 8.983 6.553.876 1.792 1.226 3.309 1.226 5.313 0 .777-.027 1.271-.094 1.707-.534 3.477-2.441 6.452-5.368 8.372-1.079.708-2.675 1.372-3.963 1.65-5.37 1.157-10.888-1.508-13.287-6.416a11.8 11.8 0 0 1-1.133-3.606c-.128-.844-.128-2.57 0-3.414.603-3.954 3.045-7.317 6.563-9.036 1.438-.703 2.776-1.075 4.406-1.224.474-.044 2.118.019 2.667.101m4.853 6.51c-.12.052-1.753 1.646-4.626 4.518l-4.44 4.438-1.987-1.981c-1.093-1.09-2.045-2.011-2.116-2.047s-.257-.065-.413-.063c-.678.006-1.135.661-.925 1.325.053.164.54.682 2.393 2.543 1.28 1.285 2.428 2.397 2.551 2.47.247.147.623.178.897.075.208-.079 9.81-9.664 9.95-9.933.256-.493.032-1.077-.51-1.328a.92.92 0 0 0-.774-.017"/></svg>

<svg width="32" height="32" viewBox="0 0 32 32" fill="none" xmlns="http://www.w3.org/2000/svg"><path d="M14.720 2.060 C 13.383 2.220,12.528 2.405,11.506 2.754 C 6.953 4.310,3.537 8.044,2.398 12.712 C 1.455 16.573,2.232 20.722,4.509 23.975 C 6.022 26.137,8.174 27.893,10.513 28.873 C 12.326 29.632,14.062 29.984,16.000 29.984 C 18.014 29.984,19.907 29.581,21.746 28.760 C 24.879 27.362,27.556 24.630,28.873 21.487 C 29.633 19.673,29.984 17.937,29.983 16.000 C 29.982 13.221,29.201 10.599,27.701 8.335 C 25.479 4.983,22.049 2.781,18.080 2.157 C 17.543 2.073,15.182 2.004,14.720 2.060 M17.760 4.134 C 21.643 4.717,25.034 7.191,26.743 10.687 C 27.619 12.479,27.969 13.996,27.969 16.000 C 27.969 16.777,27.942 17.271,27.875 17.707 C 27.341 21.184,25.434 24.159,22.507 26.079 C 21.428 26.787,19.832 27.451,18.544 27.729 C 13.174 28.886,7.656 26.221,5.257 21.313 C 4.662 20.096,4.325 19.021,4.124 17.707 C 3.996 16.863,3.996 15.137,4.124 14.293 C 4.727 10.339,7.169 6.976,10.687 5.257 C 12.125 4.554,13.463 4.182,15.093 4.033 C 15.567 3.989,17.211 4.052,17.760 4.134 M22.613 10.644 C 22.493 10.696,20.860 12.290,17.987 15.162 L 13.547 19.600 11.560 17.619 C 10.467 16.529,9.515 15.608,9.444 15.572 C 9.373 15.536,9.187 15.507,9.031 15.509 C 8.353 15.515,7.896 16.170,8.106 16.834 C 8.159 16.998,8.646 17.516,10.499 19.377 C 11.779 20.662,12.927 21.774,13.050 21.847 C 13.297 21.994,13.673 22.025,13.947 21.922 C 14.155 21.843,23.757 12.258,23.897 11.989 C 24.153 11.496,23.929 10.912,23.387 10.661 C 23.130 10.542,22.865 10.536,22.613 10.644 " fill="#1A1C1F" stroke="none" fill-rule="evenodd"></path></svg>
